src/assets/icons/ico_full_refurbishment.svg

<?xml version="1.0" encoding="utf-8"?>
<!-- Generator: Adobe Illustrator 26.0.1, SVG Export Plug-In . SVG Version: 6.00 Build 0)  -->
<svg version="1.1" id="Layer_1" xmlns="http://www.w3.org/2000/svg" xmlns:xlink="http://www.w3.org/1999/xlink" x="0px" y="0px"
	 viewBox="0 0 64 64" style="enable-background:new 0 0 64 64;" xml:space="preserve">
<style type="text/css">
	.st0{fill:#43BBC4;}
</style>
<path class="st0" d="M10.6187,26.5776c0.0654,0.123,0.1797,0.2134,0.3145,0.2485c0.0415,0.0112,0.0845,0.0166,0.127,0.0166
	c0.0942,0,0.1875-0.0269,0.2686-0.0781l0.6914-0.4389v3.3922c-0.0001,0.0043-0.0024,0.0078-0.0024,0.0121
	s0.0023,0.0078,0.0024,0.0121v4.8884c-0.0001,0.0043-0.0024,0.0078-0.0024,0.0121s0.0023,0.0078,0.0024,0.0121v4.8879
	c-0.0001,0.0043-0.0024,0.0078-0.0024,0.0121s0.0023,0.0078,0.0024,0.0121v14.6158c0,0.2764,0.2236,0.5,0.5,0.5h4.7219
	c0.0085,0.0004,0.0156,0.0049,0.0242,0.0049s0.0157-0.0045,0.0242-0.0049h4.682c0.0085,0.0004,0.0156,0.0049,0.0242,0.0049
	s0.0157-0.0045,0.0242-0.0049h4.6815c0.0085,0.0004,0.0156,0.0049,0.0242,0.0049s0.0157-0.0045,0.0242-0.0049H30.02
	c0.2764,0,0.5-0.2236,0.5-0.5s-0.2236-0.5-0.5-0.5h-2.7935v-3h2.2408c0.0051,0.0002,0.0093,0.0029,0.0145,0.0029
	s0.0094-0.0027,0.0145-0.0029H30.02c0.2764,0,0.5-0.2236,0.5-0.5s-0.2236-0.5-0.5-0.5h-0.0381v-2.3799H30.02
	c0.2764,0,0.5-0.2236,0.5-0.5s-0.2236-0.5-0.5-0.5h-2.9492V43.583c0-0.2764-0.2236-0.5-0.5-0.5H15.6025
	c-0.2764,0-0.5,0.2236-0.5,0.5s0.2236,0.5,0.5,0.5h1.1636v2.2197H13.02v-6.248h2.9985c0.2764,0,0.5-0.2236,0.5-0.5V29.73
	c0-0.2764-0.2236-0.5-0.5-0.5H13.02v-3.539l1.5254-0.9683h13.5347H30.02c0.2764,0,0.5-0.2236,0.5-0.5s-0.2236-0.5-0.5-0.5h-1.4399
	v-1.8198H30.02c0.2764,0,0.5-0.2236,0.5-0.5s-0.2236-0.5-0.5-0.5h-1.4399V19.083H30.02c0.2764,0,0.5-0.2236,0.5-0.5
	s-0.2236-0.5-0.5-0.5h-1.9399c-0.2764,0-0.5,0.2236-0.5,0.5v5.1396h-11.448l14.1555-8.9775
	c0.2334-0.1479,0.3027-0.457,0.1548-0.6899c-0.1479-0.2339-0.4575-0.3022-0.6899-0.1548l-15.5552,9.8652
	c-0.022,0.0098-0.0439,0.0215-0.0649,0.0347l-2.8853,1.8306l-1.1655-2.1899l20.2021-12.5234
	c0.2344-0.1455,0.3066-0.4536,0.1611-0.6885c-0.1445-0.2334-0.4531-0.3071-0.6885-0.1611l-20.6001,12.77
	c-0.2236,0.1387-0.3013,0.4272-0.1777,0.6597L10.6187,26.5776z M13.02,50.6826h2.568c0.0051,0.0002,0.0093,0.0029,0.0145,0.0029
	s0.0094-0.0027,0.0145-0.0029h1.149v3H13.02V50.6826z M17.2467,47.3027c0.0068,0.0003,0.0125,0.0039,0.0194,0.0039
	s0.0126-0.0036,0.0194-0.0039h2.4435v2.3799h-3.6265v-2.3799H17.2467z M21.9772,47.3027c0.0068,0.0003,0.0125,0.0039,0.0194,0.0039
	s0.0126-0.0036,0.0194-0.0039h2.3395v2.3799H20.729v-2.3799H21.9772z M20.2145,50.6826c0.0051,0.0002,0.0093,0.0029,0.0145,0.0029
	s0.0094-0.0027,0.0145-0.0029h1.2531v3h-3.7305v-3H20.2145z M26.2266,53.6826h-3.73v-3h2.3444
	c0.0051,0.0002,0.0093,0.0029,0.0145,0.0029s0.0094-0.0027,0.0145-0.0029h1.3566V53.6826z M28.9819,49.6826h-3.6265v-2.3799h1.1959
	c0.0068,0.0003,0.0125,0.0039,0.0194,0.0039s0.0126-0.0036,0.0194-0.0039h2.3917V49.6826z M26.0708,46.3027h-3.5742V44.083h3.5742
	V46.3027z M17.7661,44.083h3.7305v2.2197h-3.7305V44.083z M15.1025,47.3027v2.3799H13.02v-2.3799H15.1025z M13.02,39.0547v-3.9121
	h2.4985v3.9121H13.02z M15.5186,30.23v3.9126H13.02V30.23H15.5186z"/>
<path class="st0" d="M33.5552,10.229c-0.1455,0.2349-0.0732,0.543,0.1611,0.6885l20.2021,12.5234l-1.1655,2.1899l-2.8853-1.8306
	c-0.0195-0.0122-0.04-0.0229-0.0615-0.0327l-15.5586-9.8672c-0.2329-0.1475-0.5415-0.0791-0.6899,0.1548
	c-0.1479,0.2329-0.0786,0.542,0.1548,0.6899l15.6099,9.8999c0.019,0.0122,0.04,0.0229,0.062,0.0327l1.5957,1.0131v27.9918h-2.1807
	V38.6455c0-0.2764-0.2236-0.5-0.5-0.5h-9.3569c-0.2764,0-0.5,0.2236-0.5,0.5v15.0371H33.98c-0.2764,0-0.5,0.2236-0.5,0.5
	s0.2236,0.5,0.5,0.5h14.2951c0.0085,0.0004,0.0156,0.0049,0.0242,0.0049s0.0157-0.0045,0.0242-0.0049H51.48
	c0.2764,0,0.5-0.2236,0.5-0.5V26.3257l0.6914,0.439c0.0811,0.0513,0.1743,0.0781,0.2686,0.0781c0.0425,0,0.0854-0.0054,0.127-0.0166
	c0.1348-0.0352,0.249-0.1255,0.3145-0.2485l1.6401-3.0801c0.1235-0.2324,0.0459-0.521-0.1777-0.6597l-20.6001-12.77
	C34.0093,9.9219,33.7002,9.9956,33.5552,10.229z M39.4424,39.1455h8.3569v14.5371h-8.3569V39.1455z"/>
<path class="st0" d="M33.98,23.7227c-0.2764,0-0.5,0.2236-0.5,0.5s0.2236,0.5,0.5,0.5h1.9399c0.2764,0,0.5-0.2236,0.5-0.5V18.583
	c0-0.2764-0.2236-0.5-0.5-0.5H33.98c-0.2764,0-0.5,0.2236-0.5,0.5s0.2236,0.5,0.5,0.5h1.4399v4.6396H33.98z"/>
<path class="st0" d="M31.5,6.4541v12.126v5.6426v33.3232c0,0.2764,0.2236,0.5,0.5,0.5s0.5-0.2236,0.5-0.5V24.2227v-5.6426V6.4541
	c0-0.2764-0.2236-0.5-0.5-0.5S31.5,6.1777,31.5,6.4541z"/>
<path class="st0" d="M45.8696,45.5773c-0.3955,0-0.7162,0.3206-0.7162,0.7162c0,0.3955,0.3207,0.7161,0.7162,0.7161
	c0.3956,0,0.7162-0.3206,0.7162-0.7161C46.5858,45.8979,46.2651,45.5773,45.8696,45.5773z"/>
</svg>

<?xml version="1.0" encoding="UTF-8" standalone="no"?>
<!DOCTYPE svg PUBLIC "-//W3C//DTD SVG 1.1//EN" "http://www.w3.org/Graphics/SVG/1.1/DTD/svg11.dtd">
<svg width="100%" height="100%" viewBox="0 0 65 65" version="1.1" xmlns="http://www.w3.org/2000/svg" xmlns:xlink="http://www.w3.org/1999/xlink" xml:space="preserve" xmlns:serif="http://www.serif.com/" style="fill-rule:evenodd;clip-rule:evenodd;stroke-linejoin:round;stroke-miterlimit:2;">
    <g transform="matrix(1,0,0,1,-146,-161)">
        <g transform="matrix(0.0625,0,0,0.0833333,146.422,161.712)">
            <rect id="ico_full_refurbishment" x="0" y="0" width="1024" height="768" style="fill:none;"/>
            <g id="ico_full_refurbishment1" serif:id="ico_full_refurbishment">
                <g id="ico_full_refurbishment.svg" transform="matrix(16,0,0,12,512,384)">
                    <g transform="matrix(1,0,0,1,-32,-32)">
                        <g>
                            <path d="M10.619,26.578C10.684,26.701 10.798,26.791 10.933,26.826C10.975,26.837 11.018,26.843 11.06,26.843C11.154,26.843 11.248,26.816 11.329,26.765L12.02,26.326L12.02,29.718C12.02,29.722 12.018,29.726 12.018,29.73C12.018,29.734 12.02,29.738 12.02,29.742L12.02,34.631C12.02,34.635 12.018,34.638 12.018,34.643C12.018,34.647 12.02,34.65 12.02,34.655L12.02,39.543C12.02,39.547 12.018,39.55 12.018,39.555C12.018,39.559 12.02,39.562 12.02,39.567L12.02,54.183C12.02,54.459 12.244,54.683 12.52,54.683L17.242,54.683C17.251,54.683 17.258,54.687 17.266,54.687C17.275,54.687 17.282,54.683 17.291,54.683L21.973,54.683C21.981,54.683 21.988,54.687 21.997,54.687C22.005,54.687 22.012,54.683 22.021,54.683L26.702,54.683C26.711,54.683 26.718,54.687 26.727,54.687C26.735,54.687 26.742,54.683 26.751,54.683L30.02,54.683C30.296,54.683 30.52,54.459 30.52,54.183C30.52,53.906 30.296,53.683 30.02,53.683L27.227,53.683L27.227,50.683L29.467,50.683C29.472,50.683 29.477,50.685 29.482,50.685C29.487,50.685 29.491,50.683 29.496,50.683L30.02,50.683C30.296,50.683 30.52,50.459 30.52,50.183C30.52,49.906 30.296,49.683 30.02,49.683L29.982,49.683L29.982,47.303L30.02,47.303C30.296,47.303 30.52,47.079 30.52,46.803C30.52,46.526 30.296,46.303 30.02,46.303L27.071,46.303L27.071,43.583C27.071,43.307 26.847,43.083 26.571,43.083L15.602,43.083C15.326,43.083 15.102,43.307 15.102,43.583C15.102,43.859 15.326,44.083 15.602,44.083L16.766,44.083L16.766,46.303L13.02,46.303L13.02,40.055L16.019,40.055C16.295,40.055 16.519,39.831 16.519,39.555L16.519,29.73C16.519,29.454 16.295,29.23 16.019,29.23L13.02,29.23L13.02,25.691L14.545,24.723L30.02,24.723C30.296,24.723 30.52,24.499 30.52,24.223C30.52,23.946 30.296,23.723 30.02,23.723L28.58,23.723L28.58,21.903L30.02,21.903C30.296,21.903 30.52,21.679 30.52,21.403C30.52,21.127 30.296,20.903 30.02,20.903L28.58,20.903L28.58,19.083L30.02,19.083C30.296,19.083 30.52,18.859 30.52,18.583C30.52,18.307 30.296,18.083 30.02,18.083L28.08,18.083C27.804,18.083 27.58,18.307 27.58,18.583L27.58,23.723L16.132,23.723L30.288,14.745C30.521,14.597 30.59,14.288 30.442,14.055C30.295,13.821 29.985,13.753 29.752,13.9L14.197,23.766C14.175,23.775 14.153,23.787 14.132,23.8L11.247,25.631L10.082,23.441L30.284,10.918C30.518,10.772 30.59,10.464 30.445,10.229C30.3,9.996 29.992,9.922 29.756,10.068L9.156,22.838C8.933,22.977 8.855,23.265 8.979,23.498L10.619,26.578ZM13.02,50.683L15.588,50.683C15.593,50.683 15.597,50.686 15.602,50.686C15.608,50.686 15.612,50.683 15.617,50.683L16.766,50.683L16.766,53.683L13.02,53.683L13.02,50.683ZM17.247,47.303C17.254,47.303 17.259,47.307 17.266,47.307C17.273,47.307 17.279,47.303 17.286,47.303L19.729,47.303L19.729,49.683L16.103,49.683L16.103,47.303L17.247,47.303ZM21.977,47.303C21.984,47.303 21.99,47.307 21.997,47.307C22.004,47.307 22.009,47.303 22.016,47.303L24.356,47.303L24.356,49.683L20.729,49.683L20.729,47.303L21.977,47.303ZM20.215,50.683C20.22,50.683 20.224,50.686 20.229,50.686C20.234,50.686 20.238,50.683 20.244,50.683L21.497,50.683L21.497,53.683L17.766,53.683L17.766,50.683L20.215,50.683ZM26.227,53.683L22.497,53.683L22.497,50.683L24.841,50.683C24.846,50.683 24.85,50.686 24.856,50.686C24.861,50.686 24.865,50.683 24.87,50.683L26.227,50.683L26.227,53.683ZM28.982,49.683L25.355,49.683L25.355,47.303L26.551,47.303C26.558,47.303 26.564,47.307 26.571,47.307C26.578,47.307 26.583,47.303 26.59,47.303L28.982,47.303L28.982,49.683L28.982,49.683ZM26.071,46.303L22.497,46.303L22.497,44.083L26.071,44.083L26.071,46.303ZM17.766,44.083L21.497,44.083L21.497,46.303L17.766,46.303L17.766,44.083ZM15.102,47.303L15.102,49.683L13.02,49.683L13.02,47.303L15.102,47.303ZM13.02,39.055L13.02,35.143L15.519,35.143L15.519,39.055L13.02,39.055ZM15.519,30.23L15.519,34.143L13.02,34.143L13.02,30.23L15.519,30.23Z" style="fill:rgb(26,91,87);fill-rule:nonzero;"/>
                            <path d="M33.555,10.229C33.41,10.464 33.482,10.772 33.716,10.917L53.918,23.441L52.753,25.631L49.868,23.8C49.848,23.788 49.828,23.777 49.806,23.768L34.247,13.9C34.015,13.753 33.706,13.821 33.558,14.055C33.41,14.288 33.479,14.597 33.712,14.745L49.322,24.645C49.341,24.657 49.362,24.668 49.384,24.678L50.98,25.691L50.98,53.683L48.799,53.683L48.799,38.646C48.799,38.369 48.576,38.146 48.299,38.146L38.942,38.146C38.666,38.146 38.442,38.369 38.442,38.646L38.442,53.683L33.98,53.683C33.704,53.683 33.48,53.906 33.48,54.183C33.48,54.459 33.704,54.683 33.98,54.683L48.275,54.683C48.284,54.683 48.291,54.688 48.299,54.688C48.308,54.688 48.315,54.683 48.323,54.683L51.48,54.683C51.756,54.683 51.98,54.459 51.98,54.183L51.98,26.326L52.671,26.765C52.753,26.816 52.846,26.843 52.94,26.843C52.982,26.843 53.025,26.837 53.067,26.826C53.202,26.791 53.316,26.701 53.382,26.578L55.022,23.498C55.145,23.265 55.068,22.977 54.844,22.838L34.244,10.068C34.009,9.922 33.7,9.996 33.555,10.229ZM39.442,39.146L47.799,39.146L47.799,53.683L39.442,53.683L39.442,39.146Z" style="fill:rgb(26,91,87);fill-rule:nonzero;"/>
                            <path d="M33.98,23.723C33.704,23.723 33.48,23.946 33.48,24.223C33.48,24.499 33.704,24.723 33.98,24.723L35.92,24.723C36.196,24.723 36.42,24.499 36.42,24.223L36.42,18.583C36.42,18.307 36.196,18.083 35.92,18.083L33.98,18.083C33.704,18.083 33.48,18.307 33.48,18.583C33.48,18.859 33.704,19.083 33.98,19.083L35.42,19.083L35.42,23.723L33.98,23.723L33.98,23.723Z" style="fill:rgb(26,91,87);fill-rule:nonzero;"/>
                            <path d="M31.5,6.454L31.5,57.546C31.5,57.822 31.724,58.046 32,58.046C32.276,58.046 32.5,57.822 32.5,57.546L32.5,6.454C32.5,6.178 32.276,5.954 32,5.954C31.724,5.954 31.5,6.178 31.5,6.454Z" style="fill:rgb(26,91,87);fill-rule:nonzero;"/>
                            <path d="M45.87,45.577C45.474,45.577 45.153,45.898 45.153,46.294C45.153,46.689 45.474,47.01 45.87,47.01C46.265,47.01 46.586,46.689 46.586,46.294C46.586,45.898 46.265,45.577 45.87,45.577Z" style="fill:rgb(26,91,87);fill-rule:nonzero;"/>
                        </g>
                    </g>
                </g>
            </g>
        </g>
    </g>
</svg>
